X: 201
T: Bahçemde Açılmaz...
C: Münir Nurettin Selçuk
O: Turkey
F: http://compmusic.upf.edu/node/140
N: nihavent--sarki--semai--bahcemde_acilmaz--munir_nurettin_selcuk
N: makam= nihavent
N: form= sarki
N: usul= semai = 3/4
M: 3/4
L: 1/16
K: C _B _e  
Q: 1/4=126
%%MIDI tuningsystem comma53
G12  | G12  | A4 B4 e4  | d4 c4 A4  | B4 G4 B4  | \
w:  ARANAĞME  |   |   |   |   | 
A4 ^F4 A4  | G12  | G8 z4  | A8 G2A2  | B8 A2B2  | 
w:   |   |   |   |   | 
c8 B2c2  | d12  | e4 c4 e4  | d2c2 B4 c4  | d12  | \
w:   |   |   |   |   | 
d8 z4  | d4 e4 f2g2  | d12  | c4 d4 e2f2  | 
w:   |   |   |   | 
c12  | c4 =B4 c2e2  | d4 c4 B4  | B2A2 G2A2 B2c2  | A12  | \
w:   |   |   |   |   | 
G2^F2 G2A2 B4  | B2A2 B2c2 d2e2  | 
w:   |   | 
d2c2 B2A2 G2e2  | d12  | A4 B6A2  | A4 G4 ^F4  | G12  | G12  | G12  | G12  | \
w:   |   |   |   |   |   |  Bah  |  çem  | 
A4 B4 e4  | d4 c4 B4  | 
w:  de *  a  |  çıl  | 
A4 B6A2  | A4 G4 ^F4  | G12  | G8 z4  | A8 G2A2  | \
w:  maz  |  se *  ni  |  gör  |   |  mez  | 
B8 A2B2  | c8 B2c2  | d12  | d4 e4 f4  | 
w:   |   |   |  se *  çi  | 
d2c2 B4 c4  | d12  | B4 A4 B4  | G12  | G12  | \
w:  çek  |  ler  |  SAZ  |  Bah  |  çem  | 
A4 B4 e4  | d4 c4 B4  | A4 B6A2  | A4 G4 ^F4  | 
w:  de *  a  |  çıl  |  maz  |  se *  ni  | 
G12  | G8 z4  | A8 G2A2  | B8 A2B2  | c8 B2c2  | d12  | \
w:  gör  |   |  mez  |   |   |   | 
d4 e4 f4  | d2c2 B4 c4  | d12  | 
w:  se *  çi  |  çek  |  ler  | 
B2c2 B2c2 d4  | d12  | d12  | d4 e4 f2g2  | d12  | c12  | c12  | \
w:  SAZ  |  Sa  |  hil  |  se  |  ni  |  rüz  |  gâr  | 
c2d2 c4 d4  | B12  | B12  | B12  | 
w:  se  |  ni  |  Ak  |  şam  | 
A4 B4 c4  | e4 d4 c4  | c4 d4 c4  | d2c2 B4 B2A2  | B12  | d12  | d12  | d12  | \
w:  se  |  ni  |  bek  |   |  ler  |   |  Sa  |  hil  | 
d4 e4 f2g2  | 
w:  se  | 
d12  | c12  | c12  | c2d2 c4 d4  | B12  | B12  | B12  | \
w:  ni  |  rüz  |  gâr  |  se  |  ni  |  Ak  |  şam  | 
B4 A4 G4  | d12  | A4 B6A2  | B2A2 G4 ^F4  | 
w:  se  |  ni  |  bek  |   | 
G12  | G8 z4  | g12  | g12  | ^f4 g4 a2b2  | g4 b8  | \
w:  ler    |   |  Gel  |  mez  |  sen *  e  |  ğer  | 
b4 a4 g2c'2  | b2a2 g2^f2 (3e2d2e2  | 
w:  mev  |  *  *  *  *  si  | 
^f12  | g2^f2 e2d2 e4  | c4 =B4 c4  | d4 e4 ^f4  | \
w:  mi  |   |  ner  |  den  | 
g4 a4 b4  | a4 g4 b4  | b4 b4 a4  | 
w:   |   |  bi le  | 
a2g2 ^f2b2 a2g2  | g12  | z2d2 e2^f2 g4  | g12  | g12  | \
w:  cek  |  ler  |   |  Gel  |  mez  | 
^f4 g4 a2b2  | g4 b8  | b4 a4 g2c'2  | 
w:  sen *  e  |  ğer  |  mev  | 
b2a2 g2^f2 (3e2d2e2  | ^f12  | g2^f2 e2d2 c4  | \
w:  *  *  *  *  si  |  mi  |   | 
c4 =B4 c4  | d4 e4 ^f4  | g4 a4 ^f4  | 
w:  ner  |  den  |   | 
e4 d4 g4  | g4 f4 e4  | d2c2 B4 c4  | d12  | \
w:   |   |   |   | 
B2c2 B2c2 d4  | d12  | d12  | d4 e4 f2g2  | 
w:   |  Sa  |  hil  |  se  | 
d12  | c12  | c12  | c2d2 c4 d4  | B12  | B12  | B12  | \
w:  ni  |  rüz  |  gâr  |  se  |  ni  |  Ak  |  şam  | 
A4 B4 c4  | e4 d4 c4  | c4 d4 c4  | d2c2 B4 B2A2  | 
w:  se  |  ni  |  bek  |   | 
B12  | d12  | d12  | d12  | d4 e4 f2g2  | d12  | c12  | c12  | \
w:  ler  |   |  Sa  |  hil  |  se  |  ni  |  rüz  |  gâr  | 
c2d2 c4 d4  | B12  | B12  | B12  | B4 A4 G4  | 
w:  se  |  ni  |  Ak  |  şam  |  se  | 
d12  | A4 B6A2  | B2A2 G4 ^F4  | G12  | G8 z4  | |


